icons/code-square-24.svg

<svg width="24" height="24" viewBox="0 0 24 24" fill="none" xmlns="http://www.w3.org/2000/svg">
<path d="M10.2996 8.23967C10.5814 8.5432 10.5639 9.01775 10.2603 9.2996L7.35221 12L10.2603 14.7004C10.5639 14.9823 10.5814 15.4568 10.2996 15.7603C10.0177 16.0639 9.54319 16.0815 9.23966 15.7996L5.73966 12.5496C5.58684 12.4077 5.5 12.2086 5.5 12C5.5 11.7915 5.58684 11.5923 5.73966 11.4504L9.23966 8.20041C9.54319 7.91856 10.0177 7.93613 10.2996 8.23967Z" fill="#24292E"/>
<path d="M13.7397 9.2996C13.4361 9.01775 13.4186 8.5432 13.7004 8.23967C13.9823 7.93613 14.4568 7.91856 14.7603 8.20041L18.2603 11.4504C18.4132 11.5923 18.5 11.7915 18.5 12C18.5 12.2086 18.4132 12.4077 18.2603 12.5496L14.7603 15.7996C14.4568 16.0815 13.9823 16.0639 13.7004 15.7603C13.4186 15.4568 13.4361 14.9823 13.7397 14.7004L16.6478 12L13.7397 9.2996Z" fill="#24292E"/>
<path fill-rule="evenodd" clip-rule="evenodd" d="M2 3.75C2 2.7835 2.7835 2 3.75 2H20.25C21.2165 2 22 2.7835 22 3.75V20.25C22 21.2165 21.2165 22 20.25 22H3.75C2.7835 22 2 21.2165 2 20.25V3.75ZM3.75 3.5C3.61193 3.5 3.5 3.61193 3.5 3.75V20.25C3.5 20.3881 3.61193 20.5 3.75 20.5H20.25C20.3881 20.5 20.5 20.3881 20.5 20.25V3.75C20.5 3.61193 20.3881 3.5 20.25 3.5H3.75Z" fill="#24292E"/>
</svg>

<svg xmlns="http://www.w3.org/2000/svg" width="24" height="24" viewBox="0 0 24 24"><path d="M10.3 8.24a.75.75 0 01-.04 1.06L7.352 12l2.908 2.7a.75.75 0 11-1.02 1.1l-3.5-3.25a.75.75 0 010-1.1l3.5-3.25a.75.75 0 011.06.04zm3.44 1.06a.75.75 0 111.02-1.1l3.5 3.25a.75.75 0 010 1.1l-3.5 3.25a.75.75 0 11-1.02-1.1l2.908-2.7-2.908-2.7z"/><path fill-rule="evenodd" d="M2 3.75C2 2.784 2.784 2 3.75 2h16.5c.966 0 1.75.784 1.75 1.75v16.5A1.75 1.75 0 0120.25 22H3.75A1.75 1.75 0 012 20.25V3.75zm1.75-.25a.25.25 0 00-.25.25v16.5c0 .138.112.25.25.25h16.5a.25.25 0 00.25-.25V3.75a.25.25 0 00-.25-.25H3.75z"/></svg>
